X:50
T:The One and Only Mr. B.
R:reel
C:Paul S. Cranford
O:Cape Breton Island
S:http://www.cranfordpub.com
D:currently unrecorded
B:currently unpublished in book form
Z:psc, (re-formatted,updated 9/17/04)
N:
H:                                                        copyrights Cranford Publications, SOCANL:1/8
Q:333
M:C|
K:D
dB|A2 AB A(F ~F2)|EDFD EDB,G,|~A,3 B, DEFA|defa e2 dB|
AFdB AFED|E3 F EDB,D|EDFD EDB,G,|A,B,DF E2:|
|:AF|E2 EF DEFA|d2 bd afed|e(B ~B2) dBAF|EBAF E2 AF|
EA,EF DEFA|d2 bd afed|e(B ~B2) dbaf|edef d2:|
